tools/download-figma-icons/icons/outlined-medium/food-3.svg

<svg width="24" height="24" viewBox="0 0 24 24" fill="none" xmlns="http://www.w3.org/2000/svg">
<path fill-rule="evenodd" clip-rule="evenodd" d="M22.2396 22.3317C22.0784 22.4667 21.8661 22.5274 21.6599 22.5034C21.4566 22.4772 21.2796 22.3737 21.1619 22.2102L16.5225 15.7491L15.978 15.9711C15.1096 16.3244 14.1323 15.9561 13.2954 14.9609C12.1014 13.5412 11.4324 11.4045 12.3796 10.6073C12.9039 10.1663 13.6591 10.3253 14.1991 10.5345C15.0016 10.845 15.8663 11.4878 16.5105 12.2557C17.349 13.2525 17.544 14.2784 17.046 15.0719L16.7348 15.5706L22.3041 21.2502C22.4451 21.3942 22.5178 21.5855 22.5081 21.7887C22.4983 21.9987 22.4001 22.1967 22.2396 22.3317ZM12.1547 15.9201C13.2564 17.2296 14.6454 17.8041 15.9653 17.5281L16.3178 18.0178C15.0698 18.8885 13.6156 19.352 12.0827 19.352C7.98256 19.352 4.64667 16.0169 4.64667 11.9167C4.64667 7.81662 7.98256 4.48147 12.0827 4.48147C16.1828 4.48147 19.518 7.81662 19.518 11.9167C19.518 13.14 19.2165 14.3249 18.648 15.3929L18.5827 15.3261C19.0807 14.0714 18.7537 12.606 17.652 11.2965C16.8405 10.332 15.7793 9.54682 14.7384 9.14408C13.4446 8.64234 12.2649 8.75634 11.4205 9.46657C9.70001 10.9133 10.4432 13.8839 12.1547 15.9201ZM12.0002 22.5087C6.20435 22.5087 1.49075 17.7943 1.49075 12C1.49075 6.20492 6.20435 1.49056 12.0002 1.49056C17.7945 1.49056 22.5089 6.20492 22.5089 12C22.5089 14.2289 21.9831 16.0461 20.8724 17.6601L19.7347 16.5014C20.5679 15.1161 21.0082 13.5442 21.0082 11.9167C21.0082 6.9954 17.0048 2.99127 12.0827 2.99127C7.16132 2.99127 3.15645 6.9954 3.15645 11.9167C3.15645 16.8388 7.16132 20.843 12.0827 20.843C13.9306 20.843 15.6841 20.2812 17.1863 19.2275L18.12 20.528C16.341 21.8052 14.1946 22.5087 12.0002 22.5087ZM21.9293 18.7387C23.3325 16.8112 24 14.6573 24 12.0001C24 5.38307 18.6167 0.000488266 12.0004 0.000488266C5.38332 0.000488266 0.0007324 5.38307 0.0007324 12.0001C0.0007324 18.6164 5.38332 23.9998 12.0004 23.9998C14.506 23.9998 16.957 23.1965 18.9887 21.7371L19.9516 23.0788C20.3094 23.5768 20.8636 23.906 21.4741 23.9818C21.5671 23.9938 21.6593 23.999 21.7516 23.999C22.2781 23.999 22.7925 23.8145 23.199 23.4725C23.676 23.0705 23.967 22.4833 23.997 21.8608C24.0263 21.2466 23.7968 20.6429 23.3685 20.2064L21.9293 18.7387Z" fill="black"/>
</svg>

<svg width="24" height="24" viewBox="0 0 24 24" fill="none" xmlns="http://www.w3.org/2000/svg"><path fill-rule="evenodd" clip-rule="evenodd" d="M22.24 22.332a.768.768 0 0 1-.58.171.719.719 0 0 1-.498-.293l-4.64-6.46-.544.221c-.868.353-1.846-.015-2.683-1.01-1.194-1.42-1.863-3.556-.915-4.354.524-.44 1.28-.282 1.82-.072.802.31 1.666.953 2.31 1.72.839.997 1.034 2.023.536 2.817l-.311.499 5.57 5.68a.713.713 0 0 1 .203.538.758.758 0 0 1-.268.543ZM12.155 15.92c1.101 1.31 2.49 1.884 3.81 1.608l.353.49a7.346 7.346 0 0 1-4.235 1.334c-4.1 0-7.436-3.335-7.436-7.435S7.983 4.48 12.083 4.48s7.435 3.336 7.435 7.436a7.375 7.375 0 0 1-.87 3.476l-.065-.067c.498-1.255.17-2.72-.931-4.03-.812-.964-1.873-1.75-2.914-2.152-1.293-.502-2.473-.388-3.317.323-1.721 1.446-.978 4.417.734 6.453ZM12 22.51C6.204 22.509 1.49 17.794 1.49 12 1.49 6.205 6.205 1.49 12 1.49c5.794 0 10.51 4.716 10.51 10.51 0 2.229-.526 4.046-1.637 5.66l-1.137-1.159a8.861 8.861 0 0 0 1.273-4.584c0-4.922-4.003-8.926-8.925-8.926-4.922 0-8.927 4.004-8.927 8.926 0 4.922 4.005 8.926 8.927 8.926a8.822 8.822 0 0 0 5.103-1.616l.934 1.301a10.52 10.52 0 0 1-6.12 1.98Zm9.93-3.77C23.331 16.81 24 14.657 24 12c0-6.617-5.383-12-12-12S0 5.383 0 12c0 6.616 5.383 12 12 12 2.506 0 4.957-.803 6.989-2.263l.963 1.342a2.215 2.215 0 0 0 1.8.92 2.25 2.25 0 0 0 1.447-.526c.477-.402.768-.99.798-1.612a2.22 2.22 0 0 0-.628-1.655l-1.44-1.467Z" fill="currentColor"/></svg>
